src/assets/home_other/arrow-left.svg

<?xml version="1.0" encoding="UTF-8"?>
<svg width="82px" height="157px" viewBox="0 0 82 157" version="1.1" xmlns="http://www.w3.org/2000/svg" xmlns:xlink="http://www.w3.org/1999/xlink">
    <title>arrow-left</title>
    <g id="Page-1" stroke="none" stroke-width="1" fill="none" fill-rule="evenodd">
        <path d="M79.7711765,2.29894936 C82.7231765,5.25094929 82.7231765,10.0362825 79.7711765,12.9882824 L16.8765114,75.8829475 C15.9817664,76.7776926 15.8039394,77.8141678 15.7861146,78.413225 L15.7845115,78.5202808 C15.7845115,79.0976141 15.9258448,80.2069474 16.8765114,81.1576141 L79.7711765,144.052279 C82.7231765,147.004279 82.7231765,151.790946 79.7711765,154.742946 C76.8178433,157.694945 72.0338434,157.694945 69.0805101,154.742946 L6.18584504,91.8482805 C2.62584513,88.2882805 0.665845175,83.5549473 0.665845175,78.5202808 C0.665845175,73.4856143 2.62584513,68.752281 6.18584504,65.1922811 L69.0805101,2.29894936 C70.5578434,0.822949401 72.4911767,0.0842827526 74.4258433,0.0842827526 C76.3605099,0.0842827526 78.2938432,0.822949401 79.7711765,2.29894936 Z" id="arrow-left" fill="#9FD9AA" fill-rule="nonzero"></path>
    </g>
</svg>

<svg height="157" viewBox="0 0 82 157" width="82" xmlns="http://www.w3.org/2000/svg"><path d="m79.7711765 2.29894936c2.952 2.95199993 2.952 7.73733314 0 10.68933304l-62.8946651 62.8946651c-.894745.8947451-1.072572 1.9312203-1.0903968 2.5302775l-.0016031.1070558c0 .5773333.1413333 1.6866666 1.0919999 2.6373333l62.8946651 62.8946649c2.952 2.952 2.952 7.738667 0 10.690667-2.9533332 2.951999-7.7373331 2.951999-10.6906664 0l-62.89466506-62.8946655c-3.55999991-3.56-5.51999987-8.2933332-5.51999987-13.3279997s1.95999996-9.7679998 5.51999987-13.3279997l62.89466506-62.89333174c1.4773333-1.47599996 3.4106666-2.21466661 5.3453332-2.21466661s3.8679999.73866665 5.3453332 2.21466661z" fill="#9fd9aa"/></svg>
